assets/icons/solid/sparkle-ai-color.svg

<svg width="24" height="24" viewBox="0 0 24 24" fill="none" xmlns="http://www.w3.org/2000/svg">
<path d="M19.4006 12.8363H19.3968C16.102 13.2662 13.7383 13.9266 13.0786 14.6027C12.7883 14.8958 12.0456 16.0486 11.3633 20.3708C11.3067 20.7538 10.9675 21 10.5 21C10.0325 21 9.69325 20.7499 9.63671 20.3669C8.9506 16.0486 8.20794 14.8958 7.92143 14.6027C7.26171 13.9266 4.89802 13.2701 1.60317 12.8363C1.2375 12.7855 1 12.4572 1 12C1 11.5506 1.24127 11.2145 1.60317 11.1637C4.89802 10.7299 7.26171 10.0695 7.92143 9.39731C8.21171 9.10421 8.95437 7.95137 9.63671 3.62918C9.69325 3.2462 10.0325 3 10.5 3C10.9675 3 11.3067 3.25011 11.3633 3.63309C12.0494 7.95137 12.7921 9.10421 13.0786 9.39731C13.7383 10.0734 16.102 10.7299 19.3968 11.1637C19.7587 11.2145 20 11.5506 20 12C20 12.4494 19.7587 12.7855 19.4006 12.8363Z" fill="#282828"/>
<path d="M19.4006 12.8363H19.3968C16.102 13.2662 13.7383 13.9266 13.0786 14.6027C12.7883 14.8958 12.0456 16.0486 11.3633 20.3708C11.3067 20.7538 10.9675 21 10.5 21C10.0325 21 9.69325 20.7499 9.63671 20.3669C8.9506 16.0486 8.20794 14.8958 7.92143 14.6027C7.26171 13.9266 4.89802 13.2701 1.60317 12.8363C1.2375 12.7855 1 12.4572 1 12C1 11.5506 1.24127 11.2145 1.60317 11.1637C4.89802 10.7299 7.26171 10.0695 7.92143 9.39731C8.21171 9.10421 8.95437 7.95137 9.63671 3.62918C9.69325 3.2462 10.0325 3 10.5 3C10.9675 3 11.3067 3.25011 11.3633 3.63309C12.0494 7.95137 12.7921 9.10421 13.0786 9.39731C13.7383 10.0734 16.102 10.7299 19.3968 11.1637C19.7587 11.2145 20 11.5506 20 12C20 12.4494 19.7587 12.7855 19.4006 12.8363Z" fill="url(#paint0_linear_14306_38119)"/>
<path d="M15.2222 19.1748H15.2208C15.0889 19.1945 15 19.3252 15 19.5C15 19.6748 15.0889 19.8055 15.2222 19.8252C16.4361 19.9939 17.3069 20.2492 17.55 20.5122C17.6556 20.6261 17.9292 21.0745 18.1819 22.7538C18.2028 22.9027 18.3278 23 18.5 23C18.6722 23 18.7972 22.9043 18.8181 22.7553C19.0694 21.0745 19.3431 20.6261 19.45 20.5122C19.6931 20.2508 20.5639 19.9939 21.7778 19.8252C21.9111 19.8055 22 19.6748 22 19.5C22 19.3222 21.9125 19.1945 21.7778 19.1748C20.5639 19.0061 19.6931 18.7508 19.45 18.4878C19.3444 18.3739 19.0708 17.9255 18.8181 16.2462C18.7972 16.0973 18.6722 16 18.5 16C18.3278 16 18.2028 16.0957 18.1819 16.2447C17.9306 17.9255 17.6569 18.3739 17.55 18.4878C17.3069 18.7508 16.4361 19.0076 15.2222 19.1748Z" fill="#282828"/>
<path d="M15.2222 19.1748H15.2208C15.0889 19.1945 15 19.3252 15 19.5C15 19.6748 15.0889 19.8055 15.2222 19.8252C16.4361 19.9939 17.3069 20.2492 17.55 20.5122C17.6556 20.6261 17.9292 21.0745 18.1819 22.7538C18.2028 22.9027 18.3278 23 18.5 23C18.6722 23 18.7972 22.9043 18.8181 22.7553C19.0694 21.0745 19.3431 20.6261 19.45 20.5122C19.6931 20.2508 20.5639 19.9939 21.7778 19.8252C21.9111 19.8055 22 19.6748 22 19.5C22 19.3222 21.9125 19.1945 21.7778 19.1748C20.5639 19.0061 19.6931 18.7508 19.45 18.4878C19.3444 18.3739 19.0708 17.9255 18.8181 16.2462C18.7972 16.0973 18.6722 16 18.5 16C18.3278 16 18.2028 16.0957 18.1819 16.2447C17.9306 17.9255 17.6569 18.3739 17.55 18.4878C17.3069 18.7508 16.4361 19.0076 15.2222 19.1748Z" fill="url(#paint1_linear_14306_38119)"/>
<path d="M22.7161 5.91815H22.7143C21.1536 6.13309 20.0339 6.46331 19.7214 6.80135C19.5839 6.94789 19.2321 7.52432 18.9089 9.68541C18.8821 9.8769 18.7214 10 18.5 10C18.2786 10 18.1179 9.87495 18.0911 9.68346C17.7661 7.52432 17.4143 6.94789 17.2786 6.80135C16.9661 6.46331 15.8464 6.13504 14.2857 5.91815C14.1125 5.89275 14 5.72861 14 5.5C14 5.27529 14.1143 5.10725 14.2857 5.08185C15.8464 4.86496 16.9661 4.53474 17.2786 4.19865C17.4161 4.05211 17.7679 3.47568 18.0911 1.31459C18.1179 1.1231 18.2786 1 18.5 1C18.7214 1 18.8821 1.12505 18.9089 1.31654C19.2339 3.47568 19.5857 4.05211 19.7214 4.19865C20.0339 4.53669 21.1536 4.86496 22.7143 5.08185C22.8857 5.10725 23 5.27529 23 5.5C23 5.72471 22.8857 5.89275 22.7161 5.91815Z" fill="#282828"/>
<path d="M22.7161 5.91815H22.7143C21.1536 6.13309 20.0339 6.46331 19.7214 6.80135C19.5839 6.94789 19.2321 7.52432 18.9089 9.68541C18.8821 9.8769 18.7214 10 18.5 10C18.2786 10 18.1179 9.87495 18.0911 9.68346C17.7661 7.52432 17.4143 6.94789 17.2786 6.80135C16.9661 6.46331 15.8464 6.13504 14.2857 5.91815C14.1125 5.89275 14 5.72861 14 5.5C14 5.27529 14.1143 5.10725 14.2857 5.08185C15.8464 4.86496 16.9661 4.53474 17.2786 4.19865C17.4161 4.05211 17.7679 3.47568 18.0911 1.31459C18.1179 1.1231 18.2786 1 18.5 1C18.7214 1 18.8821 1.12505 18.9089 1.31654C19.2339 3.47568 19.5857 4.05211 19.7214 4.19865C20.0339 4.53669 21.1536 4.86496 22.7143 5.08185C22.8857 5.10725 23 5.27529 23 5.5C23 5.72471 22.8857 5.89275 22.7161 5.91815Z" fill="url(#paint2_linear_14306_38119)"/>
<defs>
<linearGradient id="paint0_linear_14306_38119" x1="1" y1="22.9971" x2="25.297" y2="20.0711" gradientUnits="userSpaceOnUse">
<stop stop-color="#EEB6FF"/>
<stop offset="1" stop-color="#0096FA"/>
</linearGradient>
<linearGradient id="paint1_linear_14306_38119" x1="1" y1="22.9971" x2="25.297" y2="20.0711" gradientUnits="userSpaceOnUse">
<stop stop-color="#EEB6FF"/>
<stop offset="1" stop-color="#0096FA"/>
</linearGradient>
<linearGradient id="paint2_linear_14306_38119" x1="1" y1="22.9971" x2="25.297" y2="20.0711" gradientUnits="userSpaceOnUse">
<stop stop-color="#EEB6FF"/>
<stop offset="1" stop-color="#0096FA"/>
</linearGradient>
</defs>
</svg>

<svg xmlns="http://www.w3.org/2000/svg" width="24" height="24" fill="none" viewBox="0 0 24 24">
  <path fill="#282828" d="M19.4 12.84c-3.3.43-5.66 1.09-6.32 1.76-.3.3-1.03 1.45-1.72 5.77-.05.38-.4.63-.86.63-.47 0-.8-.25-.86-.63-.69-4.32-1.43-5.47-1.72-5.77-.66-.67-3.02-1.33-6.32-1.76-.36-.05-.6-.38-.6-.84s.24-.79.6-.84c3.3-.43 5.66-1.1 6.32-1.76.3-.3 1.03-1.45 1.72-5.77.05-.38.4-.63.86-.63.47 0 .8.25.86.63.69 4.32 1.43 5.47 1.72 5.77.66.67 3.02 1.33 6.32 1.76.36.05.6.4.6.84 0 .45-.24.79-.6.84"/>
  <path fill="url(#a)" d="M19.4 12.84c-3.3.43-5.66 1.09-6.32 1.76-.3.3-1.03 1.45-1.72 5.77-.05.38-.4.63-.86.63-.47 0-.8-.25-.86-.63-.69-4.32-1.43-5.47-1.72-5.77-.66-.67-3.02-1.33-6.32-1.76-.36-.05-.6-.38-.6-.84s.24-.79.6-.84c3.3-.43 5.66-1.1 6.32-1.76.3-.3 1.03-1.45 1.72-5.77.05-.38.4-.63.86-.63.47 0 .8.25.86.63.69 4.32 1.43 5.47 1.72 5.77.66.67 3.02 1.33 6.32 1.76.36.05.6.4.6.84 0 .45-.24.79-.6.84"/>
  <path fill="#282828" d="M15.22 19.17c-.13.02-.22.16-.22.33q.01.27.22.33c1.22.16 2.09.42 2.33.68.1.12.38.56.63 2.24q.05.24.32.25.27-.02.32-.24c.25-1.69.52-2.13.63-2.25.24-.26 1.11-.52 2.33-.68.13-.02.22-.16.22-.33q-.01-.28-.22-.33c-1.22-.16-2.09-.42-2.33-.68-.1-.12-.38-.56-.63-2.24q-.05-.24-.32-.25-.27.02-.32.24c-.25 1.69-.52 2.13-.63 2.25-.24.26-1.11.52-2.33.68"/>
  <path fill="url(#b)" d="M15.22 19.17c-.13.02-.22.16-.22.33q.01.27.22.33c1.22.16 2.09.42 2.33.68.1.12.38.56.63 2.24q.05.24.32.25.27-.02.32-.24c.25-1.69.52-2.13.63-2.25.24-.26 1.11-.52 2.33-.68.13-.02.22-.16.22-.33q-.01-.28-.22-.33c-1.22-.16-2.09-.42-2.33-.68-.1-.12-.38-.56-.63-2.24q-.05-.24-.32-.25-.27.02-.32.24c-.25 1.69-.52 2.13-.63 2.25-.24.26-1.11.52-2.33.68"/>
  <path fill="#282828" d="M22.72 5.92c-1.57.21-2.69.54-3 .88-.14.15-.49.72-.81 2.89q-.06.3-.41.31c-.22 0-.38-.13-.4-.32-.33-2.16-.69-2.73-.82-2.88-.31-.34-1.43-.66-3-.88-.17-.03-.28-.2-.28-.42s.11-.4.29-.42c1.56-.22 2.68-.55 2.99-.88.14-.15.49-.72.81-2.89q.06-.3.41-.31c.22 0 .38.13.4.32.33 2.16.69 2.73.82 2.88.31.34 1.43.66 3 .88.17.03.28.2.28.42s-.11.4-.28.42"/>
  <path fill="url(#c)" d="M22.72 5.92c-1.57.21-2.69.54-3 .88-.14.15-.49.72-.81 2.89q-.06.3-.41.31c-.22 0-.38-.13-.4-.32-.33-2.16-.69-2.73-.82-2.88-.31-.34-1.43-.66-3-.88-.17-.03-.28-.2-.28-.42s.11-.4.29-.42c1.56-.22 2.68-.55 2.99-.88.14-.15.49-.72.81-2.89q.06-.3.41-.31c.22 0 .38.13.4.32.33 2.16.69 2.73.82 2.88.31.34 1.43.66 3 .88.17.03.28.2.28.42s-.11.4-.28.42"/>
  <defs>
    <linearGradient id="a" x1="1" x2="25.3" y1="23" y2="20.07" gradientUnits="userSpaceOnUse">
      <stop stop-color="#eeb6ff"/>
      <stop offset="1" stop-color="#0096fa"/>
    </linearGradient>
    <linearGradient id="b" x1="1" x2="25.3" y1="23" y2="20.07" gradientUnits="userSpaceOnUse">
      <stop stop-color="#eeb6ff"/>
      <stop offset="1" stop-color="#0096fa"/>
    </linearGradient>
    <linearGradient id="c" x1="1" x2="25.3" y1="23" y2="20.07" gradientUnits="userSpaceOnUse">
      <stop stop-color="#eeb6ff"/>
      <stop offset="1" stop-color="#0096fa"/>
    </linearGradient>
  </defs>
</svg>
